X: 1193
M: 6/8
L: 1/8
K: A
EEE A2A | BAB c3 | E2E F2E | E2E E2A |\
EEE A2A | BAB cAF | E2E F2E | E2E EA H|]
c/d/ |\
efe edc | BAB c3 | E2E F2E | E2E EA c/d/ |\
efe edc | BAB c3 | E2E F2E | E2E "^da Capo"EA |]

